X: 1
T: The High Noon Killer
R: reel
M: 4/4
L: 1/8
K: Edor
E2EF GABd |cccB ABcd |egfd eA (3Bcd |egfd edcA |
E2EF GABd |cccB ABcd |[1egfd eA (3Bcd | egfd e4 :|2egfd eA (3Bcd |egfd edef ||
ge ~e2be ~e2|beaf gfed|~c2cB ABcd |egfd edef |
ge ~e2be ~e2|bagf gfed |~c2cB ABcd |1[ egfd e2ef :| 2[ egfd edcA ||
|:EGBd cAEG | BdcA  EGBd | cedf egfa |gefd edcA|
EGBd cAEG |BdcA  (3EFG Bd |cedf egfa |gefd (3eee ez:|